X:1
T:James Gibb editions
T:Aperite mihi portas - Draconio
%%score [ 1 2 3 4 ]
L:1/8
Q:1/4=90
M:4/4
K:C
V:1 treble nm="Alto" snm="A"
V:2 treble-8 nm="Tenor" snm="T"
V:3 bass nm="Bass I" snm="B I"
V:4 bass nm="Bass II" snm="B II"
V:1
"^Aperite mihi portas""^Giovanni Andrea Draconio\n(1550?-99)" E4 E2 E2 | E2 E4 E2 | E4 E2 E2 | %3
w: A- pe- ri-|te mi- hi|por- tas ju-|
 E2 E2 E2 E2 |[M:4/4] A4 G2 G2 | G4 G4 | z2 G4 G2 | G2 ^F2 E3 E | E4 z2 E2 | E2 ^F2 G3 G | %10
w: sti- ti- ae in-|gres- sus in|e- as|con- fi-|te- bor Do- mi-|no haec|por- ta Do- mi-|
 G2 G2 G2 ^F2 | E4 D4- | D2 C2 B,4 | !fermata!^C8 |] %14
w: ni, ju- sti in-|tra- bunt|* in e-|am.|
V:2
 B4 B2 B2 | B2 B4 B2 | B4 B2 B2 | c2 c2 c2 c2 |[M:4/4][K:treble-8] c4 c2 c2 | c2 B2 c4 | z2 d4 d2 | %7
w: A- pe- ri-|te mi- hi|por- tas ju-|sti- ti- ae in-|gres- sus in|e- * as|con- fi-|
 d2 d2 B3 B | ^c4 z2 c2 | ^c2 d2 e3 e | e2 e2 d2 d2 | c4 B2 B2- | B2 (A4 ^G2) | !fermata!A8 |] %14
w: te- bor Do- mi-|no haec|por- ta Do- mi-|ni, ju- sti in-|tra- bunt in|* e\- *|am.|
V:3
 ^G,4 G,2 G,2 | ^G,2 G,4 G,2 | ^G,4 G,2 G,2 | A,2 A,2 A,2 A,2 |[M:4/4] E,4 E,2 E,2 | D,4 E,4 | %6
w: A- pe- ri-|te mi- hi|por- tas ju-|sti- ti- ae in-|gres- sus in|e- as|
 z2 B,4 B,2 | B,2 A,2 A,2 ^G,2 | A,4 z2 A,2 | A,2 A,2 C3 C | C2 C2 B,2 B,2 | G,4 G,2 G,2 | E,8 | %13
w: con- fi-|te- bor Do- mi-|no haec|por- ta Do- mi-|ni, ju- sti in-|tra- bunt in|e-|
 !fermata!E,8 |] %14
w: am.|
V:4
 E,4 E,2 E,2 | E,2 E,4 E,2 | E,4 E,2 E,2 | A,,2 A,,2 A,,2 A,,2 |[M:4/4] A,,4 C,2 C,2 | G,,4 C,4 | %6
w: A- pe- ri-|te mi- hi|por- tas ju-|sti- ti- ae in-|gres- sus in|e- as|
 z2 G,,4 G,,2 | G,,2 D,2 E,2 E,2 | A,,4 z2 A,,2 | A,,2 D,2 C,3 C, | C,2 C,2 G,,2 B,,2 | C,4 G,,4 | %12
w: con- fi-|te- bor Do- mi-|no haec|por- ta Do- mi-|ni, ju- sti in-|tra- bunt|
 A,,4 E,,4 | !fermata!A,,8 |] %14
w: in e-|am.|

